svg/regular/bx-category-alt.svg

<svg xmlns="http://www.w3.org/2000/svg" width="24" height="24"><path d="M10 3H4a1 1 0 0 0-1 1v6a1 1 0 0 0 1 1h6a1 1 0 0 0 1-1V4a1 1 0 0 0-1-1zM9 9H5V5h4v4zm11 4h-6a1 1 0 0 0-1 1v6a1 1 0 0 0 1 1h6a1 1 0 0 0 1-1v-6a1 1 0 0 0-1-1zm-1 6h-4v-4h4v4zM17 3c-2.206 0-4 1.794-4 4s1.794 4 4 4 4-1.794 4-4-1.794-4-4-4zm0 6c-1.103 0-2-.897-2-2s.897-2 2-2 2 .897 2 2-.897 2-2 2zM7 13c-2.206 0-4 1.794-4 4s1.794 4 4 4 4-1.794 4-4-1.794-4-4-4zm0 6c-1.103 0-2-.897-2-2s.897-2 2-2 2 .897 2 2-.897 2-2 2z"/></svg>

<svg xmlns="http://www.w3.org/2000/svg" width="24" height="24" viewBox="0 0 24 24"><path d="M10 3H4C3.447 3 3 3.447 3 4v6c0 .553.447 1 1 1h6c.553 0 1-.447 1-1V4C11 3.447 10.553 3 10 3zM9 9H5V5h4V9zM20 13h-6c-.553 0-1 .447-1 1v6c0 .553.447 1 1 1h6c.553 0 1-.447 1-1v-6C21 13.447 20.553 13 20 13zM19 19h-4v-4h4V19zM17 3c-2.206 0-4 1.794-4 4s1.794 4 4 4 4-1.794 4-4S19.206 3 17 3zM17 9c-1.103 0-2-.897-2-2s.897-2 2-2 2 .897 2 2S18.103 9 17 9zM7 13c-2.206 0-4 1.794-4 4s1.794 4 4 4 4-1.794 4-4S9.206 13 7 13zM7 19c-1.103 0-2-.897-2-2s.897-2 2-2 2 .897 2 2S8.103 19 7 19z"/></svg>
